T: For Reals
M: 6/8
L: 1/8
K: Dmaj
A | d3 def | A2d cAF | GFG Gd(E | E)dE cAG |
F2(d d)ef | A2d cAF | GFG dGF |1 E>FE D2A :|2 E>FE DGA ] |
|: B3 EFG | A3 DEF | (F3 F)GA | AGF G2D |
B2D cde | A2D cAF | GFG dGF |1 E>FE DGA :|2 E>FE D2 |]